X:1
T:Salzgitter, 87.87 D
T:Salzgitter, 87.87 D
T:William Fiske Sherwin, 1881
T:Public Domain Courtesy of the Cyber Hymnal™
C:William Fiske Sherwin, 1881
Z:Public Domain
Z:Courtesy of the Cyber Hymnal™
%%score 1 ( 2 3 )
L:1/8
Q:1/4=90
M:3/4
K:G
V:1 treble 
V:2 bass 
V:3 bass 
V:1
 [DB]>[B,G] | [Ec]3 [DB] [CA][B,G] | [CE]2 [B,D]2 [DG]>[DA] | [DB]3 [Gd] [Fc][GB] | %4
 [FA]4 [GB]>[DG] | [Ec]3 [DB] [CA][B,G] | [CE]2 [B,D]2 [DG]>[DG] | [EA]3 [Ec] [DB][DA] | %8
 [DG]4 [DB]>[Dc] | [Gd]3 [GB] [Ge][Gd] | [Ac]2 [FA]2 [FA]>[GB] | [Ac]3 [FA] [Bd][Ac] | %12
 [GB]4 [DG]>[DA] | [DB]3 [B,G] [Ec][DB] | [EA]2 [EG]2 [DF]>[CE] | [B,D]3 [DG] [DA]>[DG] | [DG]4 |] %17
V:2
 G,>G, | G,3 G, [D,F,][E,G,] | [C,G,]2 [G,,G,]2 [B,,G,]>[D,F,] | G,3 [B,D] [A,D][G,D] | %4
 [D,D]4 [G,D]>[G,B,] | G,3 G, [D,F,][E,G,] | [C,G,]2 [G,,G,]2 [B,,G,]>[B,,G,] | %7
 [C,G,]3 [C,G,] [D,G,][D,C] | [G,,B,]4 G,>[G,A,] | [G,B,]3 [G,D] [G,C][G,B,] | %10
 [D,D]2 [D,D]2 [D,D]>[D,D] | [D,D]3 [D,D] [D,D][D,D] | [G,D]4 [B,,G,]>[D,F,] | %13
 G,3 G, [G,,G,][G,,G,] | [C,G,]2 [C,G,]2 [C,G,]>[C,G,] | [D,G,]3 [D,B,] [D,C]>[G,,B,] | [G,,B,]4 |] %17
V:3
 G,>G, | G,3 G, x2 | x6 | G,3 x3 | x6 | G,3 G, x2 | x6 | x6 | x4 G,3/2 x/ | x6 | x6 | x6 | x6 | %13
 G,3 G, x2 | x6 | x6 | x4 |] %17

